X:1
T:Title
%%score ( 1 2 ) ( 3 4 )
L:1/8
Q:1/4=90
M:6/8
K:F
V:1 treble nm="Choir Aahs, Unnamed-000"
V:2 treble 
V:3 bass nm="Choir Aahs, Unnamed-001"
V:4 bass 
V:1
 [CA][CF][CA] [Cc]2 [CA] | F-[CF][CG] [CA]2 [DF] | [Fd]2 [Fd] [Ec]>B[CA] | [CG]3 C2 [Cc] | %4
w: By~C.E.F.~Weyse~(1774\-1842) * * * *||||
 [CA][CF][CA] [Cc]2 [CA] | F-[CF][CG] [CA]2 [Cc] | [CG]>A[CG] [Gc]>=B[Ec] | d2- [Fd] .[Ec]3 | %8
w: ||||
 [EG]>F[EG] [FA]2 [FA] | B-[DB][EG] [FA]2 [CF] | [B,B]2 [CA] [DG]>A[DG] | [CG]3 .C2 [Ec] | %12
w: ||||
 cA[FB] [Fc]2 [FA] | GB[FA] [EG]2 [Gc] | AB[Fd] [Ec]>B[FA] | [FA]2 [EG] .F3 |] %16
w: ||||
V:2
 x6 | .D3 z3 | x6 | x6 | x6 | .D3 z3 | x6 | .G3 z3 | x6 | .F3 z3 | x6 | x6 | .F3 z3 | .E3 z3 | %14
 .F3 z3 | x6 |] %16
V:3
 [F,A,][A,C][F,A,] [F,A,]2 F, | F,-[A,,F,][C,E,] F,2 [D,A,] | [B,,B,]>A,[B,,B,] [C,G,]2 F, | %3
 [C,E,]3 [C,E,]2 [C,E,] | F,[F,A,]F, [F,A,]2 F, | F,-[A,,F,][C,E,] F,2 [A,,F,] | %6
 [C,E,]2 [C,E,] [E,C]2 [A,C] | C =B,2 .[C,G,]3 | [B,,C]>[A,,C][C,C] [F,C]2 [A,C] | %9
 [G,B,]2 [C,C] [F,C]2 [F,A,] | [D,F,]2 [C,F,] [=B,,F,]2 [B,,F,] | [C,E,]3- [C,E,] z [C,B,] | %12
 [F,A,]F,[F,G,] [F,A,]2 [F,C] | [C,C]2 [F,C] [C,C]2 [E,C] | [F,C][D,B,][B,,B,] [C,G,]2 [D,F,] | %15
 .C3 z3 |] %16
V:4
 x6 | .B,,3 z3 | x6 | x6 | x6 | .B,,3 z3 | x6 | G,3 z3 | x6 | x6 | x6 | x6 | x6 | x6 | x6 | %15
 C,2- [C,B,] .[F,A,]3 |] %16

